outputs/icons/general/video_round.svg

<svg xmlns="http://www.w3.org/2000/svg" width="1200" height="1200" fill="none"><path fill="#000" d="M750 400v400H250V400zm50-100H200c-27.5 0-50 22.5-50 50v500c0 27.5 22.5 50 50 50h600c27.5 0 50-22.5 50-50V675l157.32 157.32c15.75 15.75 42.68 4.595 42.68-17.675V385.356c0-22.273-26.93-33.428-42.68-17.678L850 525V350c0-27.5-22.5-50-50-50"/></svg>

<svg width="1200" height="1200" viewBox="0 0 1200 1200" fill="none" xmlns="http://www.w3.org/2000/svg"><path d="M750 400V800H250V400H750ZM800 300H200C172.5 300 150 322.5 150 350V850C150 877.5 172.5 900 200 900H800C827.5 900 850 877.5 850 850V675L1007.32 832.32C1023.07 848.07 1050 836.915 1050 814.645V385.356C1050 363.083 1023.07 351.928 1007.32 367.678L850 525V350C850 322.5 827.5 300 800 300Z" fill="black"/></svg>
